X: 1
T: the Walls of Limerick
T: the Eight and Forty Sisters
T: Tie the Ribbons
R: reel
H: See also "Tie the Ribbons", #137
D: Frankie Gavin: Frankie Goes to Town
Z: id:hn-reel-266
M: C|
K: Edor
|: d=c |\
"Em"BE~E2 GBAF | "D"DFA=c BGAF |\
"Em"GFEF GABc |[1,3 "D"dcdf ef :|[2,4 "D"dcdf "Em"~e2 :|
|: ef |\
"Em"gfef gbag | "D"fddc dfaf |\
[1,3 "Em"gfef gbaf | "D"gefd "Em"Be :|\
[2,4 "Em"bgaf gfed | "D"Bcdf "Em"e2 :|

%%sep 1 1 500

